packages/ndla-icons/svg/editor/ListSquare.svg

<svg
  xmlns="http://www.w3.org/2000/svg"
  data-license="CC-BY 4.0"
  data-source="Icomoon"
  width="32"
  height="32"
  viewBox="0 0 32 32">
  <path d="M0 0h8v8h-8zM12 2h20v4h-20zM0 12h8v8h-8zM12 14h20v4h-20zM0 24h8v8h-8zM12 26h20v4h-20z" />
</svg>

<svg xmlns="http://www.w3.org/2000/svg" data-license="CC-BY 4.0" data-source="Icomoon" viewBox="0 0 32 32">
  <path d="M0 0h8v8H0zm12 2h20v4H12zM0 12h8v8H0zm12 2h20v4H12zM0 24h8v8H0zm12 2h20v4H12z"/>
</svg>
